packages/core/src/svgs/tokens/branded/UWU.svg

<svg width="24" height="24" viewBox="0 0 24 24" fill="none" xmlns="http://www.w3.org/2000/svg">
<path d="M21.007 18.7432C21.5301 19.2545 21.9652 20.1481 21.2068 20.6712C21.0657 20.7711 20.9247 20.8181 20.7719 20.8181H16.5395C16.1692 20.8181 15.8518 20.6477 15.699 20.3244C15.6888 20.3068 15.6743 20.2921 15.6567 20.2819C15.6392 20.2716 15.6193 20.2659 15.599 20.2657H8.82152C8.79699 20.2636 8.77247 20.2694 8.75138 20.282C8.73029 20.2946 8.7137 20.3135 8.70395 20.3362C8.56287 20.6594 8.21018 20.8181 7.85161 20.8181H3.76628C3.07853 20.8181 2.66706 20.2657 2.85517 19.6132C2.86223 19.591 2.86482 19.5675 2.86281 19.5444C2.86079 19.5212 2.85419 19.4985 2.8434 19.478C2.55699 18.8852 2.37787 18.2463 2.31437 17.5911C2.11922 15.8551 2.39539 14.0987 3.1138 12.5064C2.34483 11.0037 1.96297 9.33279 2.00283 7.64517C2.00283 7.26898 2.0616 6.87513 2.17329 6.46954C2.32025 5.92874 2.66118 5.62896 3.20785 5.55842C3.71926 5.49965 4.26593 5.54079 4.77732 5.6466C6.07052 5.89935 7.40487 6.2932 8.77449 6.81636C8.83906 6.8397 8.90977 6.8397 8.97434 6.81636C9.82207 6.50269 10.7159 6.33186 11.6195 6.31082C11.6607 6.31082 11.7018 6.29907 11.7371 6.26968C12.6151 5.54791 13.5337 4.87672 14.488 4.25934C15.1816 3.80672 16.0752 3.28945 16.9098 3.18952C18.6557 2.97789 19.1729 7.21606 19.2083 8.30941C19.2259 8.69149 19.2024 9.09708 19.1377 9.52032C19.1351 9.54176 19.1375 9.5635 19.1447 9.58388C19.1518 9.60426 19.1635 9.62274 19.1788 9.63788C20.5625 11.0074 21.5043 12.76 21.8829 14.6696C22.0377 15.355 22.0391 16.0663 21.8866 16.7522C21.7342 17.4383 21.4318 18.0821 21.0011 18.6373C20.9717 18.6785 20.9776 18.708 21.007 18.7432Z" fill="black"/>
<path d="M17.61 3.8949C17.5129 3.87655 17.4167 3.853 17.322 3.82436C17.0928 3.75382 16.9105 3.78322 16.7166 3.92428C16.4167 4.1359 16.1641 4.35928 15.9584 4.59441C15.373 5.26064 14.9326 6.04132 14.6651 6.88688C14.4771 6.82223 14.3594 6.83987 14.3007 6.94567C14.2811 6.98446 14.275 7.02873 14.2835 7.07138C14.292 7.11402 14.3147 7.15255 14.3477 7.1808C14.3653 7.20431 14.3948 7.21606 14.4182 7.22783C15.1118 7.45119 15.7231 7.70983 16.258 8.00374C16.1229 8.30508 15.9283 8.57599 15.686 8.80025C15.4435 9.02448 15.1583 9.19744 14.8474 9.3087C14.2654 9.4968 13.7422 9.50856 13.272 9.3381C12.0669 8.90898 11.5261 8.03314 11.6554 6.71054C11.7377 6.70467 11.8259 6.69879 11.8905 6.65177C12.9423 5.76503 14.0627 4.96309 15.2412 4.25346C15.7879 3.93017 16.6813 3.47166 17.2103 3.58923C17.3515 3.6245 17.4866 3.72443 17.61 3.8949Z" fill="#4747CC"/>
<path d="M17.609 3.8949C17.8147 4.19469 17.9736 4.48272 18.0734 4.759C18.6189 6.20263 18.8571 7.74422 18.7729 9.28519L18.7554 9.30282C18.7481 9.30482 18.7404 9.3048 18.7332 9.30271C18.7259 9.30064 18.7193 9.29661 18.7142 9.29107C17.5489 8.20988 16.166 7.39019 14.6582 6.88689C14.9344 6.04043 15.3636 5.27627 15.9574 4.59441C16.1631 4.35928 16.4157 4.1359 16.7215 3.92428C16.9095 3.78322 17.0918 3.75382 17.321 3.82437C17.4151 3.85376 17.5092 3.88314 17.609 3.8949Z" fill="#6678FF"/>
<path d="M8.86243 7.24546C8.12634 7.48171 7.45864 7.89322 6.91676 8.44461C6.87561 8.29766 6.81684 8.22124 6.74041 8.20948C6.65225 8.18597 6.55232 8.22712 6.45238 8.32704C6.21726 8.06253 6.06443 7.8803 5.97037 7.79212C5.378 7.176 4.66854 6.68437 3.88362 6.3461C3.46039 6.16976 2.87846 6.12861 2.76677 6.70467C2.65508 7.27485 2.62569 7.83916 2.67272 8.39758C2.73151 8.99716 2.80203 9.53208 2.89021 9.99057C3.01311 10.5988 3.23979 11.1815 3.56032 11.7129C3.55444 11.7952 3.48978 11.901 3.38398 12.0421C3.35459 12.0833 3.32519 12.0774 3.30168 12.0362C2.70681 10.7376 2.39808 9.32629 2.39645 7.89794C2.36095 7.35666 2.44733 6.8143 2.64921 6.31082C3.17824 5.14108 7.95721 6.91628 8.86243 7.25134V7.24546Z" fill="#5959FF"/>
<path d="M6.45355 8.32704C5.27314 9.25125 4.28979 10.4025 3.56148 11.7129C3.24095 11.1814 3.01427 10.5988 2.89137 9.99057C2.8032 9.53208 2.73267 8.99716 2.67388 8.39758C2.62685 7.83915 2.65624 7.27485 2.76793 6.70467C2.87962 6.12861 3.46155 6.16387 3.88478 6.35197C4.89585 6.77982 5.78028 7.45984 6.45355 8.32704Z" fill="#6678FF"/>
<path d="M11.655 6.71054C11.5257 8.03314 12.0665 8.90898 13.2716 9.33809C13.7417 9.50855 14.2709 9.4968 14.8411 9.3087C15.1531 9.19811 15.4395 9.02547 15.6829 8.80119C15.9264 8.57691 16.1218 8.30564 16.2576 8.00374C17.1629 8.51515 17.9506 9.09121 18.6148 9.73781C18.9674 10.161 19.2027 10.6195 19.3378 11.1074C19.3437 11.1426 19.3378 11.178 19.3261 11.2074C18.9146 11.9539 18.2797 12.1538 17.5215 12.4241C17.4593 12.4426 17.4022 12.475 17.3543 12.5187C17.3065 12.5626 17.2692 12.6167 17.2452 12.6769C17.2292 12.7156 17.2275 12.7588 17.2405 12.7987C17.2534 12.8384 17.2801 12.8725 17.3158 12.8944C17.9623 13.3352 18.9205 13.1765 19.6082 12.8651C19.6196 12.8611 19.6316 12.859 19.6435 12.8592H19.6846C19.7199 12.8592 19.7551 12.8474 19.7904 12.8239L20.4841 12.3359C20.4885 12.3334 20.4936 12.3321 20.4988 12.3321C20.5039 12.3321 20.509 12.3334 20.5135 12.3359C20.5191 12.3384 20.5239 12.3425 20.5271 12.3478C20.5302 12.353 20.5316 12.3592 20.531 12.3654V12.4124C20.531 12.4418 20.5194 12.4711 20.4958 12.5005C20.2254 12.818 19.9081 13.0708 19.5612 13.2529C19.1791 13.4528 18.7265 13.4705 18.3033 13.5646C18.1736 13.5869 18.0566 13.6559 17.9741 13.7585C17.9532 13.7854 17.9418 13.8184 17.9418 13.8526C17.9418 13.8866 17.9532 13.9197 17.9741 13.9465C18.3856 14.4462 19.1968 14.5109 19.814 14.458C19.8447 15.6987 19.4667 16.9153 18.7382 17.9203C17.351 17.8732 16.0107 18.3904 15.5993 19.8013C15.5993 19.8189 15.5876 19.8365 15.5699 19.8483C15.5558 19.8568 15.5393 19.8609 15.5229 19.8601H8.88055C8.85115 19.8601 8.82764 19.8483 8.82177 19.813C8.72474 19.4419 8.53613 19.1011 8.27323 18.8217C8.01032 18.5424 7.68152 18.3335 7.31695 18.2142L6.68799 17.979C7.52269 17.9614 8.27509 17.8321 8.93933 17.597C11.1848 16.7975 11.6727 14.4228 10.6734 12.5123C10.4383 12.0656 10.1208 11.5718 9.7329 11.0487C9.36257 10.5313 9.14507 9.99057 9.45077 9.40275C9.58587 9.14411 9.76225 8.95013 9.82699 8.63859C9.89557 8.35472 9.8728 8.05644 9.76198 7.78624C9.65115 7.51604 9.4579 7.28771 9.20972 7.13377C10.015 6.8575 10.8321 6.71642 11.655 6.71054Z" fill="#5959FF"/>
<path d="M9.21006 7.13377C9.74503 7.51586 9.95076 8.0155 9.82732 8.63859C9.76258 8.95013 9.5921 9.14411 9.4511 9.40275C9.1454 9.99057 9.36291 10.5313 9.73913 11.0487C10.1211 11.5777 10.4327 12.0656 10.6737 12.5182C11.673 14.4287 11.1852 16.7975 8.93966 17.597C8.26955 17.8321 7.52302 17.9614 6.68832 17.979L6.13577 17.9203C5.38925 17.8791 4.90135 17.838 4.66622 17.8027C4.03957 17.7051 3.436 17.4938 2.88513 17.1796C2.73818 17.0973 2.66764 17.0914 2.67353 17.1678C2.60299 15.9863 2.76169 14.8224 3.14377 13.6821C3.84787 11.5972 5.16276 9.77236 6.91757 8.44461C7.45945 7.89322 8.12714 7.48171 8.86324 7.24545L9.21594 7.1279L9.21006 7.13377Z" fill="#6678FF"/>
<path d="M18.615 9.73781C19.8618 10.8912 20.7823 12.3532 21.2837 13.976C20.7841 14.2111 20.2962 14.3698 19.8142 14.458C19.197 14.5167 18.3859 14.4462 17.9801 13.9465C17.9593 13.9197 17.9479 13.8866 17.9479 13.8526C17.9479 13.8184 17.9593 13.7854 17.9801 13.7585C18.0612 13.6571 18.176 13.5883 18.3036 13.5646C18.7267 13.4705 19.1852 13.4469 19.5614 13.2529C19.9209 13.0657 20.2404 12.8102 20.5019 12.5005C20.5196 12.4711 20.5313 12.4418 20.5313 12.4124V12.3477C20.5287 12.341 20.5236 12.3354 20.5171 12.3321C20.5106 12.3289 20.5032 12.3281 20.496 12.3301L20.4844 12.3359L19.7906 12.8239C19.7592 12.8443 19.7223 12.8545 19.6849 12.8533H19.6378L19.6026 12.8651C18.9149 13.1765 17.9567 13.3352 17.3101 12.8944C17.2753 12.8716 17.2494 12.8376 17.2365 12.7981C17.2236 12.7585 17.2247 12.7157 17.2395 12.6769C17.2865 12.5593 17.3747 12.477 17.5159 12.4241C18.28 12.1538 18.9031 11.9539 19.3204 11.2074C19.337 11.1768 19.3413 11.141 19.3322 11.1074C19.1937 10.6037 18.947 10.1363 18.6091 9.73781H18.615Z" fill="#4747CC"/>
<path d="M14.642 11.7187C15.171 11.6659 15.5707 11.3543 15.5355 11.0134C15.5061 10.6784 15.0535 10.4431 14.5302 10.4843C14.0012 10.5372 13.6074 10.8488 13.6368 11.1897C13.672 11.5248 14.1247 11.7657 14.6478 11.7187H14.642Z" fill="#6678FF"/>
<path d="M8.90988 12.5241C9.42712 12.4359 9.80334 12.089 9.73874 11.7541C9.6799 11.4131 9.20967 11.2133 8.69239 11.3015C8.16923 11.3895 7.79891 11.7364 7.85769 12.0715C7.91647 12.4124 8.38673 12.6123 8.90988 12.5241Z" fill="#5959FF"/>
<path d="M16.1516 13.4175C16.3633 15.2516 13.7533 15.6219 13.4182 13.8584C13.3595 13.5292 13.3125 13.2236 13.2831 12.9415C13.2772 12.8533 13.3184 12.7944 13.4007 12.7651L13.4418 12.7592C13.4946 12.7474 13.5417 12.7592 13.5828 12.7885C13.6239 12.818 13.6534 12.8592 13.6651 12.9062C13.7062 13.1472 13.7474 13.3941 13.7769 13.6526C13.9356 15.0811 15.94 14.8342 15.7636 13.5057L15.6343 12.6239C15.6282 12.5877 15.6344 12.5506 15.652 12.5182C15.6931 12.4477 15.7402 12.4065 15.7989 12.4006C15.9223 12.4006 15.9988 12.4593 16.0223 12.577C16.0752 12.8474 16.1164 13.1295 16.1516 13.4175ZM10.4615 14.0288C10.4086 13.7644 10.3733 13.4998 10.344 13.2411C10.344 13.1413 10.3792 13.0766 10.4733 13.0413C10.4859 13.0343 10.5 13.0303 10.5145 13.0297C10.632 13.0354 10.7025 13.0943 10.7261 13.2059C10.8789 14.0113 11.0905 14.8224 10.291 15.3808C9.46808 15.9628 8.33952 15.5219 8.13965 14.5462C8.08087 14.2641 8.02796 13.9524 7.98682 13.6057C7.98682 13.5821 7.98682 13.5469 7.99857 13.5234C8.0456 13.4293 8.0985 13.3823 8.15729 13.3882C8.2866 13.3882 8.36303 13.4587 8.38066 13.588C8.42181 13.8937 8.46883 14.1759 8.51586 14.4403C8.73922 15.7336 10.7261 15.3985 10.4556 14.0288H10.4615Z" fill="black"/>
<path d="M21.2835 13.976C21.8302 15.6101 21.6245 17.0796 20.6604 18.3846C20.652 18.3966 20.6394 18.405 20.6252 18.4081C20.6173 18.4105 20.6091 18.4112 20.601 18.4101C20.5929 18.4091 20.5851 18.4065 20.5781 18.4022C20.0256 18.0965 19.4084 17.9319 18.7383 17.9203C19.4667 16.9153 19.8447 15.6987 19.814 14.458C20.296 14.3698 20.7838 14.2052 21.2835 13.976Z" fill="#5050E5"/>
<path d="M12.7488 17.885C12.6346 18.0972 12.4531 18.2655 12.2328 18.3634C12.0126 18.4612 11.7661 18.4832 11.532 18.4257C10.709 18.2259 10.4151 17.2795 10.997 16.6741C11.0161 16.6532 11.0422 16.64 11.0701 16.6368C11.0983 16.6336 11.1265 16.6405 11.1498 16.6564L11.1734 16.6682C11.2616 16.727 11.2792 16.7916 11.2146 16.8739C10.95 17.2267 10.9441 17.5675 11.1969 17.885C11.3203 18.0378 11.4908 18.1201 11.7024 18.1377C12.2492 18.1847 12.6311 17.738 12.5254 17.2267C12.5229 17.2091 12.5155 17.1926 12.5041 17.1791C12.4926 17.1655 12.4777 17.1555 12.4608 17.1501C12.1142 17.0219 11.8022 16.8145 11.5496 16.5447C11.1382 16.1039 11.6025 15.3044 12.1844 15.5749C12.2844 15.6219 12.3785 15.6806 12.4608 15.7511C12.4686 15.7584 12.4779 15.7636 12.4881 15.7668C12.4982 15.7698 12.5091 15.7705 12.5195 15.7688C12.5254 15.7688 12.5372 15.7688 12.5431 15.757C12.5523 15.7533 12.5604 15.7471 12.5665 15.7395C13.0074 14.9282 14.0185 15.5219 13.5834 16.2744C13.4022 16.601 13.1562 16.8869 12.8605 17.1149C12.8537 17.1318 12.8517 17.15 12.8546 17.1678C12.9369 18.026 14.1478 18.1436 14.3593 17.3206C14.4475 16.9739 14.3241 16.6859 13.9832 16.4565C13.9126 16.4095 13.9067 16.3508 13.9596 16.2919L13.9949 16.2449C14.0537 16.1862 14.1124 16.1803 14.1713 16.2214C14.3444 16.3216 14.4854 16.469 14.5777 16.6464C14.6701 16.8238 14.7099 17.0238 14.6927 17.2231C14.6755 17.4224 14.6017 17.6125 14.4802 17.7715C14.3588 17.9303 14.1945 18.0513 14.0067 18.1201C13.5775 18.2729 13.1896 18.1906 12.8428 17.8732C12.8016 17.8321 12.7723 17.838 12.7488 17.885Z" fill="black"/>
<path d="M6.13595 17.9203C4.98382 17.8967 3.92576 18.0849 3.16159 19.0077L3.14395 19.0195C3.13801 19.0212 3.13176 19.0215 3.12565 19.0205C3.11955 19.0196 3.11375 19.0171 3.10869 19.0136L3.09693 18.996C2.85418 18.4147 2.7111 17.7967 2.67371 17.1678C2.66782 17.0914 2.73248 17.0973 2.88531 17.1796C3.49665 17.5147 4.08447 17.7204 4.66053 17.8085C4.89566 17.838 5.38943 17.8791 6.13595 17.9262V17.9203Z" fill="#5959FF"/>
<path d="M6.6941 19.5837C6.65383 19.6057 6.62259 19.641 6.60592 19.6837C6.58916 19.7272 6.58916 19.7753 6.60592 19.8189C6.66471 19.9952 6.68822 20.1716 6.6941 20.348C6.6941 20.4067 6.66471 20.4362 6.61181 20.4362H5.17753C5.16344 20.4349 5.14978 20.4307 5.13756 20.4235C5.12535 20.4164 5.1149 20.4067 5.10699 20.395C5.09892 20.3842 5.09363 20.3716 5.09158 20.3582C5.08953 20.3449 5.09079 20.3312 5.09523 20.3185L5.24807 19.8013C5.27746 19.719 5.24807 19.6544 5.17753 19.6014C5.14542 19.5817 5.10922 19.5696 5.07172 19.5662C5.04153 19.5622 5.01085 19.5674 4.98363 19.581C4.9564 19.5946 4.93385 19.6161 4.91889 19.6426C4.79135 19.8667 4.72259 20.1195 4.71904 20.3773C4.71904 20.4244 4.69551 20.4419 4.6485 20.4419C4.29579 20.4244 3.61393 20.5242 3.34941 20.295C2.90856 19.9129 3.48462 19.1488 3.80791 18.896C4.11358 18.655 4.46627 18.4845 4.86599 18.4081C6.08276 18.1495 7.68751 18.3317 8.28708 19.525C8.4987 19.9365 8.43991 20.4303 7.8521 20.4303H7.14084C7.08794 20.4303 7.06443 20.4126 7.0703 20.3596C7.08794 20.1422 7.05267 19.9188 6.95861 19.6896C6.92335 19.6014 6.85869 19.5603 6.75876 19.5721C6.73428 19.5729 6.71025 19.5789 6.68822 19.5896L6.6941 19.5837ZM19.7495 19.6719C19.74 19.6507 19.7263 19.6313 19.7093 19.6154C19.6923 19.5994 19.6722 19.5869 19.6504 19.5786C19.6285 19.5704 19.6052 19.5667 19.5819 19.5675C19.5585 19.5685 19.5356 19.574 19.5144 19.5837C19.3968 19.6426 19.3675 19.7308 19.4086 19.8483C19.4791 20.0188 19.5026 20.195 19.4909 20.3773C19.4901 20.3854 19.4875 20.3932 19.4835 20.4004C19.4794 20.4075 19.4739 20.4137 19.4673 20.4185C19.4565 20.4296 19.4417 20.4359 19.4262 20.4362H17.9919C17.9332 20.4362 17.9155 20.4067 17.9155 20.348C17.9332 20.195 17.9744 20.0363 18.0449 19.8776C18.0552 19.8575 18.0611 19.8355 18.0624 19.813C18.0624 19.6896 18.0272 19.619 17.9685 19.5955C17.8509 19.5485 17.7627 19.5837 17.7039 19.6955C17.5923 19.907 17.5334 20.1363 17.5275 20.3655C17.5275 20.4126 17.4982 20.4362 17.4511 20.4362H16.5754C15.9875 20.4362 15.8875 19.9306 16.1227 19.5073C16.828 18.2318 18.6032 18.0965 19.8554 18.4963C20.164 18.5836 20.4469 18.744 20.6802 18.964C20.9135 19.184 21.0903 19.4571 21.1955 19.7601C21.319 20.1598 21.0193 20.4478 20.6136 20.4362H19.9494C19.8906 20.4362 19.8729 20.4126 19.8729 20.3596C19.8965 20.0893 19.8554 19.8601 19.7495 19.6719Z" fill="#5959FF"/>
</svg>

<svg xmlns="http://www.w3.org/2000/svg" width="24" height="24" fill="none" viewBox="0 0 24 24">
    <path fill="#000" d="M21.007 18.743c.523.512.958 1.405.2 1.928a.73.73 0 0 1-.435.147H16.54c-.37 0-.688-.17-.841-.494a.12.12 0 0 0-.1-.058H8.822a.12.12 0 0 0-.118.07c-.141.323-.494.482-.852.482H3.766c-.687 0-1.099-.552-.91-1.205a.18.18 0 0 0-.013-.135 5.6 5.6 0 0 1-.529-1.887 9.7 9.7 0 0 1 .8-5.085 10.15 10.15 0 0 1-1.111-4.86q.002-.566.17-1.176c.147-.541.488-.841 1.035-.912a5 5 0 0 1 1.57.089c1.293.252 2.627.646 3.996 1.17a.3.3 0 0 0 .2 0 8.2 8.2 0 0 1 2.646-.506.18.18 0 0 0 .117-.041 30 30 0 0 1 2.751-2.01c.694-.453 1.587-.97 2.422-1.07 1.746-.212 2.263 4.026 2.298 5.12.018.381-.006.787-.07 1.21a.14.14 0 0 0 .04.118 9.75 9.75 0 0 1 2.705 5.032A4.76 4.76 0 0 1 21 18.637c-.03.041-.023.071.006.106"/>
    <path fill="#4747CC" d="M17.61 3.895a3 3 0 0 1-.288-.07.63.63 0 0 0-.605.1q-.45.315-.759.67a6.4 6.4 0 0 0-1.293 2.292c-.188-.065-.306-.047-.364.059a.195.195 0 0 0 .047.235c.017.023.047.035.07.047q1.04.335 1.84.776a2.45 2.45 0 0 1-1.41 1.305q-.873.284-1.576.03-1.809-.645-1.617-2.628c.083-.006.17-.012.236-.06a26 26 0 0 1 3.35-2.398c.547-.323 1.44-.781 1.97-.664.14.035.276.135.399.306"/>
    <path fill="#6678FF" d="M17.609 3.895c.206.3.365.588.464.864.546 1.444.784 2.985.7 4.526l-.018.018a.04.04 0 0 1-.04-.012 11.2 11.2 0 0 0-4.057-2.404 6.5 6.5 0 0 1 1.3-2.293q.306-.352.763-.67a.61.61 0 0 1 .6-.1c.094.03.188.06.288.07"/>
    <path fill="#5959FF" d="M8.862 7.245a4.8 4.8 0 0 0-1.945 1.2q-.062-.22-.177-.236c-.088-.023-.188.018-.288.118-.235-.264-.388-.447-.482-.535a6.4 6.4 0 0 0-2.086-1.446c-.424-.176-1.006-.217-1.117.359a6 6 0 0 0-.094 1.693c.059.6.129 1.134.217 1.593.123.608.35 1.19.67 1.722-.006.082-.07.188-.176.33-.03.04-.059.034-.082-.007a10 10 0 0 1-.906-4.138A3.6 3.6 0 0 1 2.65 6.31c.53-1.17 5.308.605 6.213.94z"/>
    <path fill="#6678FF" d="M6.454 8.327a11.2 11.2 0 0 0-2.893 3.386 5.4 5.4 0 0 1-.67-1.722 18 18 0 0 1-.217-1.593 6 6 0 0 1 .094-1.693c.112-.576.694-.541 1.117-.353a6.4 6.4 0 0 1 2.569 1.975"/>
    <path fill="#5959FF" d="M11.655 6.71c-.13 1.323.412 2.199 1.617 2.628.47.17.999.159 1.57-.03a2.45 2.45 0 0 0 1.416-1.304q1.36.765 2.357 1.734c.352.423.588.882.723 1.37a.2.2 0 0 1-.012.1c-.411.746-1.046.946-1.805 1.216a.43.43 0 0 0-.276.253.176.176 0 0 0 .07.217c.647.441 1.605.283 2.293-.029a.1.1 0 0 1 .035-.006h.042a.2.2 0 0 0 .105-.035l.694-.488a.03.03 0 0 1 .03 0 .03.03 0 0 1 .017.03v.046a.14.14 0 0 1-.035.088c-.27.318-.588.57-.935.753-.382.2-.834.217-1.258.312a.54.54 0 0 0-.329.194.15.15 0 0 0 0 .188c.412.5 1.223.564 1.84.511a5.66 5.66 0 0 1-1.076 3.462c-1.387-.047-2.727.47-3.139 1.881q0 .029-.03.047a.1.1 0 0 1-.046.012H8.88c-.03 0-.053-.012-.06-.047a2.3 2.3 0 0 0-1.504-1.599l-.629-.235q1.254-.028 2.251-.382c2.246-.8 2.734-3.174 1.734-5.085-.235-.446-.552-.94-.94-1.463-.37-.518-.588-1.058-.282-1.646.135-.259.311-.453.376-.764a1.39 1.39 0 0 0-.617-1.505 7.7 7.7 0 0 1 2.445-.423"/>
    <path fill="#6678FF" d="M9.21 7.134q.802.571.617 1.505c-.064.311-.235.505-.376.764-.306.588-.088 1.128.288 1.646q.573.792.935 1.47c.999 1.91.511 4.278-1.734 5.078-.67.235-1.417.364-2.252.382l-.552-.059c-.747-.04-1.235-.082-1.47-.117a5.2 5.2 0 0 1-1.78-.623q-.222-.126-.212-.012a9.2 9.2 0 0 1 .47-3.486 10.97 10.97 0 0 1 3.774-5.237 4.8 4.8 0 0 1 1.945-1.2l.353-.117z"/>
    <path fill="#4747CC" d="M18.615 9.738a9.66 9.66 0 0 1 2.669 4.238q-.748.351-1.47.482c-.617.059-1.428-.012-1.834-.511a.15.15 0 0 1 0-.188.54.54 0 0 1 .324-.194c.423-.095.881-.118 1.257-.312.36-.187.68-.443.94-.752a.2.2 0 0 0 .03-.089v-.064a.03.03 0 0 0-.035-.018l-.012.006-.693.488a.2.2 0 0 1-.106.03h-.047l-.035.011c-.688.312-1.646.47-2.293.03a.18.18 0 0 1-.07-.218.44.44 0 0 1 .276-.253c.764-.27 1.387-.47 1.804-1.217a.14.14 0 0 0 .012-.1 3.6 3.6 0 0 0-.723-1.37z"/>
    <path fill="#6678FF" d="M14.642 11.719c.529-.053.929-.365.894-.706-.03-.335-.482-.57-1.006-.529-.529.053-.923.365-.893.706.035.335.488.576 1.01.529z"/>
    <path fill="#5959FF" d="M8.91 12.524c.517-.088.893-.435.829-.77-.06-.34-.53-.54-1.047-.452-.523.088-.893.434-.834.77.058.34.529.54 1.052.452"/>
    <path fill="#000" d="M16.152 13.418c.211 1.834-2.399 2.204-2.734.44q-.088-.493-.135-.917-.008-.132.118-.176l.04-.006a.17.17 0 0 1 .142.03c.04.029.07.07.082.117.041.241.082.488.112.747.159 1.428 2.163 1.181 1.987-.147l-.13-.882a.16.16 0 0 1 .018-.106c.041-.07.088-.112.147-.117q.187 0 .223.176c.053.27.094.553.13.84m-5.69.61a9 9 0 0 1-.118-.787c0-.1.035-.164.13-.2a.1.1 0 0 1 .04-.011q.177.008.212.176c.153.805.364 1.616-.435 2.175a1.373 1.373 0 0 1-2.151-.835 11 11 0 0 1-.153-.94c0-.024 0-.06.012-.083q.07-.142.158-.135c.13 0 .206.07.224.2.04.306.088.588.135.852.223 1.294 2.21.959 1.94-.411z"/>
    <path fill="#5050E5" d="M21.284 13.976q.82 2.451-.624 4.409a.06.06 0 0 1-.035.023l-.024.002-.023-.008a3.9 3.9 0 0 0-1.84-.482 5.66 5.66 0 0 0 1.076-3.462c.482-.088.97-.253 1.47-.482"/>
    <path fill="#000" d="M12.749 17.885a1.09 1.09 0 0 1-1.217.54c-.823-.2-1.117-1.146-.535-1.75a.12.12 0 0 1 .153-.019l.023.012c.089.059.106.124.042.206-.265.353-.27.694-.018 1.011a.7.7 0 0 0 .505.253c.547.047.93-.4.823-.911a.09.09 0 0 0-.064-.077 2.4 2.4 0 0 1-.911-.605c-.412-.441.052-1.24.634-.97q.152.07.277.176a.07.07 0 0 0 .059.018c.005 0 .017 0 .023-.012a.1.1 0 0 0 .024-.018c.44-.81 1.451-.217 1.016.535a2.7 2.7 0 0 1-.723.84.1.1 0 0 0-.005.054c.082.858 1.293.976 1.504.153q.134-.52-.376-.865c-.07-.046-.076-.105-.023-.164l.035-.047q.088-.087.176-.024a1.052 1.052 0 0 1-.164 1.9q-.644.229-1.164-.248-.06-.06-.094.012"/>
    <path fill="#5959FF" d="M6.136 17.92c-1.152-.023-2.21.165-2.974 1.088l-.018.012a.04.04 0 0 1-.035-.006l-.012-.018a5.6 5.6 0 0 1-.423-1.828c-.006-.077.058-.07.211.012.612.335 1.2.54 1.776.628q.354.046 1.475.118z"/>
    <path fill="#5959FF" d="M6.694 19.584a.19.19 0 0 0-.088.235c.059.176.082.353.088.529 0 .059-.03.088-.082.088H5.178a.1.1 0 0 1-.086-.078.1.1 0 0 1 .003-.04l.153-.517c.03-.082 0-.147-.07-.2a.25.25 0 0 0-.106-.035.15.15 0 0 0-.153.077 1.5 1.5 0 0 0-.2.734c0 .047-.023.065-.07.065-.353-.018-1.035.082-1.3-.147-.44-.382.136-1.146.459-1.399a2.4 2.4 0 0 1 1.058-.488c1.217-.259 2.822-.076 3.421 1.117.212.412.153.905-.435.905h-.711c-.053 0-.077-.017-.07-.07a1.44 1.44 0 0 0-.112-.67q-.052-.135-.2-.118a.2.2 0 0 0-.07.018zm13.056.088a.176.176 0 0 0-.236-.088c-.117.059-.146.147-.105.264.07.17.094.347.082.53a.06.06 0 0 1-.024.04.06.06 0 0 1-.04.018h-1.435c-.059 0-.076-.03-.076-.088q.024-.231.129-.47a.2.2 0 0 0 .017-.065c0-.123-.035-.194-.094-.217q-.175-.07-.264.1a1.5 1.5 0 0 0-.177.67c0 .047-.029.07-.076.07h-.876c-.587 0-.687-.505-.452-.929.705-1.275 2.48-1.41 3.732-1.01a2 2 0 0 1 1.34 1.263c.124.4-.176.688-.581.676h-.665c-.058 0-.076-.023-.076-.076q.035-.405-.123-.688"/>
</svg>
